Adwaita/scalable/actions/edit-delete-symbolic.svg

<?xml version="1.0" encoding="UTF-8"?>
<svg height="16px" viewBox="0 0 16 16" width="16px" xmlns="http://www.w3.org/2000/svg">
    <path d="m 8 0 c -4.410156 0 -8 3.589844 -8 8 s 3.589844 8 8 8 s 8 -3.589844 8 -8 s -3.589844 -8 -8 -8 z m 0 2 c 3.332031 0 6 2.667969 6 6 s -2.667969 6 -6 6 s -6 -2.667969 -6 -6 s 2.667969 -6 6 -6 z m -2.03125 2.96875 c -0.265625 0 -0.519531 0.105469 -0.707031 0.292969 c -0.390625 0.390625 -0.390625 1.023437 0 1.414062 l 1.292969 1.292969 l -1.292969 1.292969 c -0.390625 0.390625 -0.390625 1.023437 0 1.414062 s 1.023437 0.390625 1.414062 0 l 1.292969 -1.292969 l 1.292969 1.292969 c 0.390625 0.390625 1.023437 0.390625 1.414062 0 s 0.390625 -1.023437 0 -1.414062 l -1.292969 -1.292969 l 1.292969 -1.292969 c 0.390625 -0.390625 0.390625 -1.023437 0 -1.414062 c -0.1875 -0.1875 -0.441406 -0.292969 -0.707031 -0.292969 s -0.519531 0.105469 -0.707031 0.292969 l -1.292969 1.292969 l -1.292969 -1.292969 c -0.1875 -0.1875 -0.441406 -0.292969 -0.707031 -0.292969 z m 0 0" fill="#2e3436"/>
</svg>

<?xml version="1.0" encoding="UTF-8"?>
<svg xmlns="http://www.w3.org/2000/svg" xmlns:xlink="http://www.w3.org/1999/xlink" width="16px" height="16px" viewBox="0 0 16 16" version="1.1">
<g id="surface10177">
<path style=" stroke:none;fill-rule:nonzero;fill:rgb(18.039216%,20.392157%,21.176471%);fill-opacity:1;" d="M 8 0 C 3.589844 0 0 3.589844 0 8 C 0 12.410156 3.589844 16 8 16 C 12.410156 16 16 12.410156 16 8 C 16 3.589844 12.410156 0 8 0 Z M 8 2 C 11.332031 2 14 4.667969 14 8 C 14 11.332031 11.332031 14 8 14 C 4.667969 14 2 11.332031 2 8 C 2 4.667969 4.667969 2 8 2 Z M 5.96875 4.96875 C 5.703125 4.96875 5.449219 5.074219 5.261719 5.261719 C 4.871094 5.652344 4.871094 6.285156 5.261719 6.675781 L 6.554688 7.96875 L 5.261719 9.261719 C 4.871094 9.652344 4.871094 10.285156 5.261719 10.675781 C 5.652344 11.066406 6.285156 11.066406 6.675781 10.675781 L 7.96875 9.382812 L 9.261719 10.675781 C 9.652344 11.066406 10.285156 11.066406 10.675781 10.675781 C 11.066406 10.285156 11.066406 9.652344 10.675781 9.261719 L 9.382812 7.96875 L 10.675781 6.675781 C 11.066406 6.285156 11.066406 5.652344 10.675781 5.261719 C 10.488281 5.074219 10.234375 4.96875 9.96875 4.96875 C 9.703125 4.96875 9.449219 5.074219 9.261719 5.261719 L 7.96875 6.554688 L 6.675781 5.261719 C 6.488281 5.074219 6.234375 4.96875 5.96875 4.96875 Z M 5.96875 4.96875 "/>
</g>
</svg>
